X: 652
T: Molly what ails you?
C: anon.
O: Ireland
B: Francis O'Neill: "The Dance Music of Ireland" (1907) no. 652
R: Reel
Z: Transcribed by Frank Nordberg - http://www.musicaviva.com
F: http://www.musicaviva.com/abc/tunes/ireland/oneill-1001/oneill-1001-065
2.abc
m: Tn = (3n/o/n/
M: C|
L: 1/8
K: D
FG|A3F (AB)d(e|f)dg(f e)dBd|A2(AF) ABde|f(gef) d2(dB)|A(BAF) ABde|fTd-d2
edBd|A2(AF) ABd(e|f)gec d2||
(de)|faa(f g)bbg|a(fef) dTB-B2|faa(f g)bb(g|a)fef d2(de)|faa(f g)bbg|afe(
f d)BBd|A2(AF) ABd(e|f)gec d2|]
W:
W:
W: From Musica Viva - http://www.musicaviva.com
W: the Internet center for free sheet music downloads.


